src/images_karasa_jaga_svg/cmd/sc_symbolshapes.forbidden.svg

<svg height="16" viewBox="0 0 16 16" width="16" xmlns="http://www.w3.org/2000/svg" xmlns:xlink="http://www.w3.org/1999/xlink"><linearGradient id="a" gradientUnits="userSpaceOnUse" x1="64" x2="64" y1="128" y2="0"><stop offset="0" stop-color="#7c9fcf"/><stop offset=".5" stop-color="#7c9ece"/><stop offset="1" stop-color="#7b9dcf"/></linearGradient><linearGradient id="b" gradientUnits="userSpaceOnUse" x1="72" x2="72" y1="128" y2="0"><stop offset="0" stop-color="#fff"/><stop offset=".59375" stop-color="#fff"/><stop offset=".84375" stop-color="#f1f1f1"/><stop offset=".90625" stop-color="#eaeaea"/><stop offset="1" stop-color="#dfdfdf"/></linearGradient><g transform="scale(.125)"><path d="m64 0c-35.346224 0-64 28.653776-64 64s28.653776 64 64 64 64-28.653776 64-64-28.653776-64-64-64zm0 32c17.673112 0 32 14.326888 32 32 0 2.865288-.383469 5.640622-1.089844 8.283203l-39.193359-39.193359c2.642581-.706375 5.417915-1.089844 8.283203-1.089844zm-30.910156 23.716797 39.193359 39.193359c-2.642581.706375-5.417915 1.089844-8.283203 1.089844-17.673112 0-32-14.326888-32-32 0-2.865288.383469-5.640622 1.089844-8.283203z" fill="url(#a)"/><path d="m64 8c-30.927946 0-56 25.072054-56 56s25.072054 56 56 56 56-25.072054 56-56-25.072054-56-56-56zm0 16c22.09139 0 40 17.90861 40 40 0 8.151586-2.44567 15.729771-6.632812 22.052734l-55.419922-55.419922c6.322963-4.187146 13.901148-6.632812 22.052734-6.632812zm-33.367188 17.947266 55.419922 55.419922c-6.322963 4.187142-13.901148 6.632812-22.052734 6.632812-22.09139 0-40-17.90861-40-40 0-8.151586 2.445666-15.729771 6.632812-22.052734z" fill="url(#b)"/></g></svg>

<?xml version="1.0" encoding="UTF-8" standalone="no"?>
<!-- Created with Inkscape (http://www.inkscape.org/) -->

<svg
   xmlns:dc="http://purl.org/dc/elements/1.1/"
   xmlns:cc="http://creativecommons.org/ns#"
   xmlns:rdf="http://www.w3.org/1999/02/22-rdf-syntax-ns#"
   xmlns:svg="http://www.w3.org/2000/svg"
   xmlns="http://www.w3.org/2000/svg"
   xmlns:xlink="http://www.w3.org/1999/xlink"
   xmlns:sodipodi="http://sodipodi.sourceforge.net/DTD/sodipodi-0.dtd"
   xmlns:inkscape="http://www.inkscape.org/namespaces/inkscape"
   version="1.1"
   id="svg2"
   width="128"
   height="128"
   viewBox="0 0 128 128"
   sodipodi:docname="sc_symbolshapes.forbidden.svg"
   inkscape:export-filename="/home/rizmut/Dokumen/Rizmut/Github/libreoffice-style-karasa-jaga/build/images_karasa_jaga/cmd/sc_symbolshapes.forbidden.png"
   inkscape:export-xdpi="12"
   inkscape:export-ydpi="12"
   inkscape:version="0.92.3 (unknown)">
  <metadata
     id="metadata8">
    <rdf:RDF>
      <cc:Work
         rdf:about="">
        <dc:format>image/svg+xml</dc:format>
        <dc:type
           rdf:resource="http://purl.org/dc/dcmitype/StillImage" />
        <dc:title></dc:title>
      </cc:Work>
    </rdf:RDF>
  </metadata>
  <defs
     id="defs6">
    <linearGradient
       id="linearGradient3369">
      <stop
         id="stop3372"
         offset="0"
         style="stop-color:#ffffff;stop-opacity:1;" />
      <stop
         style="stop-color:#ffffff;stop-opacity:1;"
         offset="0.59375"
         id="stop3374" />
      <stop
         style="stop-color:#f1f1f1;stop-opacity:1;"
         offset="0.84375"
         id="stop3376" />
      <stop
         id="stop3378"
         offset="0.90625"
         style="stop-color:#eaeaea;stop-opacity:1;" />
      <stop
         id="stop3384"
         offset="1"
         style="stop-color:#dfdfdf;stop-opacity:1;" />
    </linearGradient>
    <linearGradient
       id="linearGradient7422">
      <stop
         style="stop-color:#7c9fcf;stop-opacity:1"
         offset="0"
         id="stop7424" />
      <stop
         id="stop5348"
         offset="0.5"
         style="stop-color:#7c9ece;stop-opacity:1" />
      <stop
         id="stop7426"
         offset="1"
         style="stop-color:#7b9dcf;stop-opacity:1" />
    </linearGradient>
    <linearGradient
       inkscape:collect="always"
       xlink:href="#linearGradient7422"
       id="linearGradient1057"
       x1="64"
       y1="128"
       x2="64"
       y2="0"
       gradientUnits="userSpaceOnUse" />
    <linearGradient
       inkscape:collect="always"
       xlink:href="#linearGradient3369"
       id="linearGradient1065"
       x1="72"
       y1="128"
       x2="72"
       y2="0"
       gradientUnits="userSpaceOnUse" />
  </defs>
  <sodipodi:namedview
     pagecolor="#ffffff"
     bordercolor="#666666"
     borderopacity="1"
     objecttolerance="10"
     gridtolerance="10"
     guidetolerance="10"
     inkscape:pageopacity="0"
     inkscape:pageshadow="2"
     inkscape:window-width="1366"
     inkscape:window-height="706"
     id="namedview4"
     showgrid="true"
     inkscape:snap-page="true"
     inkscape:snap-global="true"
     inkscape:zoom="2.8284271"
     inkscape:cx="89.977642"
     inkscape:cy="57.43965"
     inkscape:window-x="0"
     inkscape:window-y="0"
     inkscape:window-maximized="1"
     inkscape:current-layer="svg2"
     inkscape:snap-smooth-nodes="true"
     showguides="false"
     inkscape:guide-bbox="true">
    <inkscape:grid
       type="xygrid"
       id="grid27"
       spacingx="8"
       spacingy="8"
       empspacing="2" />
    <sodipodi:guide
       position="51.972346,56"
       orientation="0,1"
       id="guide841"
       inkscape:locked="false" />
  </sodipodi:namedview>
  <path
     style="opacity:1;fill:url(#linearGradient1057);fill-opacity:1;stroke:none;stroke-width:9.14285755;stroke-linecap:round;stroke-linejoin:round;stroke-miterlimit:4;stroke-dasharray:none;stroke-dashoffset:0;stroke-opacity:1"
     d="M 64 0 C 28.653776 0 0 28.653776 0 64 C 0 99.346224 28.653776 128 64 128 C 99.346224 128 128 99.346224 128 64 C 128 28.653776 99.346224 0 64 0 z M 64 32 C 81.673112 32 96 46.326888 96 64 C 96 66.865288 95.616531 69.640622 94.910156 72.283203 L 55.716797 33.089844 C 58.359378 32.383469 61.134712 32 64 32 z M 33.089844 55.716797 L 72.283203 94.910156 C 69.640622 95.616531 66.865288 96 64 96 C 46.326888 96 32 81.673112 32 64 C 32 61.134712 32.383469 58.359378 33.089844 55.716797 z "
     id="circle1049" />
  <path
     style="opacity:1;fill:url(#linearGradient1065);fill-opacity:1;stroke:none;stroke-width:8;stroke-linecap:round;stroke-linejoin:round;stroke-miterlimit:4;stroke-dasharray:none;stroke-dashoffset:0;stroke-opacity:1"
     d="M 64 8 C 33.072054 8 8 33.072054 8 64 C 8 94.927946 33.072054 120 64 120 C 94.927946 120 120 94.927946 120 64 C 120 33.072054 94.927946 8 64 8 z M 64 24 C 86.09139 24 104 41.90861 104 64 C 104 72.151586 101.55433 79.729771 97.367188 86.052734 L 41.947266 30.632812 C 48.270229 26.445666 55.848414 24 64 24 z M 30.632812 41.947266 L 86.052734 97.367188 C 79.729771 101.55433 72.151586 104 64 104 C 41.90861 104 24 86.09139 24 64 C 24 55.848414 26.445666 48.270229 30.632812 41.947266 z "
     id="path1047" />
  <g
     id="g1125"
     transform="matrix(0.70710678,-0.70710678,0.88388348,0.88388348,-37.823376,52.686292)" />
</svg>
